components/Icon/svg/protocol.svg

<svg width="24" height="24" viewBox="0 0 24 24" fill="none" xmlns="http://www.w3.org/2000/svg">
<path d="M19.8002 4.8H19.2002V4.2C19.2002 3.2076 18.3926 2.4 17.4002 2.4H16.8002V1.8C16.8002 0.8076 15.9926 0 15.0002 0H6.00019C5.84059 0 5.68819 0.0636 5.57539 0.1752L1.3754 4.3752C1.2626 4.488 1.2002 4.6404 1.2002 4.8V17.4C1.2002 18.3924 2.0078 19.2 3.0002 19.2H3.60019V19.8C3.60019 20.7924 4.40779 21.6 5.40019 21.6H6.00019V22.2C6.00019 23.1924 6.80779 24 7.80019 24H19.8002C20.7926 24 21.6002 23.1924 21.6002 22.2V6.6C21.6002 5.6076 20.7926 4.8 19.8002 4.8ZM6.00019 1.4484V4.2C6.00019 4.5312 5.73139 4.8 5.40019 4.8H2.6486L6.00019 1.4484ZM2.4002 17.4V6H5.40019C6.39259 6 7.20019 5.1924 7.20019 4.2V1.2H15.0002C15.3314 1.2 15.6002 1.4688 15.6002 1.8V17.4C15.6002 17.7312 15.3314 18 15.0002 18H3.0002C2.669 18 2.4002 17.7312 2.4002 17.4ZM4.80019 19.8V19.2H15.0002C15.9926 19.2 16.8002 18.3924 16.8002 17.4V3.6H17.4002C17.7314 3.6 18.0002 3.8688 18.0002 4.2V19.8C18.0002 20.1312 17.7314 20.4 17.4002 20.4H5.40019C5.06899 20.4 4.80019 20.1312 4.80019 19.8ZM20.4002 22.2C20.4002 22.5312 20.1314 22.8 19.8002 22.8H7.80019C7.46899 22.8 7.20019 22.5312 7.20019 22.2V21.6H17.4002C18.3926 21.6 19.2002 20.7924 19.2002 19.8V6H19.8002C20.1314 6 20.4002 6.2688 20.4002 6.6V22.2Z" fill="white"/>
</svg>

<svg xmlns="http://www.w3.org/2000/svg" width="24" height="24" viewBox="0 0 24 24">
  <path fill="currentColor" d="M19.8 4.8h-.6v-.6c0-.992-.807-1.8-1.8-1.8h-.6v-.6C16.8.808 15.993 0 15 0H6a.604.604 0 0 0-.425.175l-4.2 4.2A.6.6 0 0 0 1.2 4.8v12.6c0 .992.808 1.8 1.8 1.8h.6v.6c0 .992.808 1.8 1.8 1.8H6v.6c0 .992.808 1.8 1.8 1.8h12c.993 0 1.8-.808 1.8-1.8V6.6c0-.992-.807-1.8-1.8-1.8ZM6 1.448V4.2a.6.6 0 0 1-.6.6H2.65L6 1.448ZM2.4 17.4V6h3c.993 0 1.8-.808 1.8-1.8v-3H15a.6.6 0 0 1 .6.6v15.6a.6.6 0 0 1-.6.6H3a.6.6 0 0 1-.6-.6Zm2.4 2.4v-.6H15c.993 0 1.8-.808 1.8-1.8V3.6h.6a.6.6 0 0 1 .6.6v15.6a.6.6 0 0 1-.6.6h-12a.6.6 0 0 1-.6-.6Zm15.6 2.4a.6.6 0 0 1-.6.6h-12a.6.6 0 0 1-.6-.6v-.6h10.2c.993 0 1.8-.808 1.8-1.8V6h.6a.6.6 0 0 1 .6.6v15.6Z"/>
</svg>
